X: 24478
T: Lucy Campbell
R: strathspey
M: 4/4
K: Amixolydian
f|"A"e<Ae>c e<Ae>c|e<Ae>c "Bm"f>BB>f|"A"e<Ae>c "Em"e>f{f}g>e|"F#m"a/g/f e>c "A"e<AA:|
|:f|"A"{f}a>fe>c "Em"e>f{f}g>e|"A"a/g/f e>c "Bm"f>BB>f|"A"{f}a>fe>c "Em"e>f{f}g>e|"F#m"a/g/f e>c "A"e<AA:|
|:B|"A"A>Bc>A c<ec>B|A>Bc>e "Bm"f>BB>c|"A"A>Bc>A c<ec>A|"F#m"a/g/f e>c "A"e<AA:|
|:f|"A"e<ac>a e<ac>a|e<ac>e "Bm"f>BB>f|"A"e<ac>a "Em"e>f{f}g>e|"F#m"a/g/f e>c "A"e<AA:|

